.github/logo-grad.svg

<svg width="78" height="75" viewBox="0 0 78 75" fill="none" xmlns="http://www.w3.org/2000/svg">
<path d="M32.269 2.94345C34.6328 4.17458 36.5623 5.81371 38.0626 7.86409C37.7038 8.37105 37.3661 8.90001 37.0496 9.45094L37.0495 9.45091L37.0456 9.45797C35.2629 12.6805 34.3831 16.5345 34.3831 21V54C34.3831 58.4007 35.2636 62.2523 37.0435 65.5381L37.0433 65.5382L37.0496 65.5491C37.3661 66.1 37.7038 66.629 38.0626 67.1359C36.5622 69.1863 34.6328 70.8254 32.269 72.0565L32.2652 72.0586C29.2195 73.6786 25.5374 74.5 21.2 74.5C16.8638 74.5 13.1471 73.6791 10.0328 72.0575C6.98854 70.4377 4.62693 68.1096 2.94057 65.0635C1.31973 61.949 0.5 58.2664 0.5 54V21C0.5 16.6643 1.32072 12.9834 2.93951 9.93843C4.62596 6.89138 6.98794 4.56255 10.0329 2.94245C13.1472 1.32089 16.8639 0.5 21.2 0.5C25.5374 0.5 29.2195 1.32137 32.2652 2.94145L32.269 2.94345ZM38.6667 8.74806C38.9107 9.13077 39.1413 9.52635 39.3586 9.93481L39.3585 9.93484L39.3625 9.94203C41.047 12.9872 41.9 16.6336 41.9 20.9V54C41.9 58.266 41.0472 61.9477 39.3603 65.0619L39.3586 65.0652C39.1413 65.4736 38.9107 65.8692 38.6667 66.2519C38.4054 65.8665 38.1565 65.468 37.9199 65.0565C36.235 61.9435 35.3831 58.2635 35.3831 54V21C35.3831 16.6672 36.236 12.989 37.9187 9.94557C38.1556 9.53328 38.405 9.13412 38.6667 8.74806ZM39.2936 7.87926C40.8728 5.82164 42.8446 4.17787 45.2123 2.94436C48.3955 1.32076 52.1474 0.5 56.4831 0.5C60.8172 0.5 64.5319 1.3534 67.645 3.03964L67.6449 3.0397L67.6522 3.04345C70.7657 4.6651 73.1602 6.99537 74.8456 10.042C76.464 12.9676 77.3148 16.448 77.3792 20.5H69.3778C69.2917 16.5201 68.1674 13.3804 65.942 11.1517C63.6909 8.76341 60.5126 7.6 56.4831 7.6C52.4533 7.6 49.2164 8.72969 46.8349 11.0412L46.8348 11.0412L46.8296 11.0464C44.5081 13.3679 43.3831 16.6791 43.3831 20.9V54C43.3831 58.2218 44.5085 61.5622 46.8243 63.9482L46.8295 63.9536L46.8349 63.9588C49.2164 66.2703 52.4533 67.4 56.4831 67.4C60.5114 67.4 63.6898 66.2708 65.9421 63.9481C68.1656 61.657 69.2916 58.4862 69.3778 54.5H77.379C77.3138 58.4875 76.4638 61.9697 74.8444 64.9601C73.1588 68.0063 70.7636 70.3703 67.6486 72.0584C64.5346 73.6794 60.8185 74.5 56.4831 74.5C52.1474 74.5 48.3956 73.6793 45.2125 72.0557C42.8446 70.8222 40.8729 69.1784 39.2936 67.1207C39.6322 66.6146 39.9479 66.0865 40.2405 65.5365C42.0198 62.251 42.9 58.4 42.9 54V20.9C42.9 16.5014 42.0203 12.6824 40.2396 9.46166C39.9472 8.91234 39.6319 8.38486 39.2936 7.87926ZM11.8359 63.9427L11.8359 63.9427L11.841 63.9481C14.0918 66.2691 17.2355 67.4 21.2 67.4C25.2274 67.4 28.3768 66.2711 30.5644 63.9423C32.8103 61.5559 33.9 58.2177 33.9 54V21C33.9 16.7865 32.8123 13.4792 30.5643 11.1575C28.378 8.76316 25.2286 7.6 21.2 7.6C17.2326 7.6 14.088 8.76605 11.8384 11.1546C9.58856 13.4765 8.5 16.7848 8.5 21V54C8.5 58.2179 9.58979 61.5562 11.8359 63.9427Z" fill="url(#paint0_linear_498_146)" stroke="url(#paint1_linear_498_146)"/>
<defs>
<linearGradient id="paint0_linear_498_146" x1="38.9416" y1="0" x2="38.9416" y2="75" gradientUnits="userSpaceOnUse">
<stop stop-color="#D33075"/>
<stop offset="1" stop-color="#6157D8"/>
</linearGradient>
<linearGradient id="paint1_linear_498_146" x1="38.9416" y1="0" x2="38.9416" y2="75" gradientUnits="userSpaceOnUse">
<stop stop-color="#D33075"/>
<stop offset="1" stop-color="#6157D8"/>
</linearGradient>
</defs>
</svg>

<svg xmlns="http://www.w3.org/2000/svg" width="78" height="75" fill="none">
  <path fill="url(#a)" stroke="url(#b)"
    d="M32.269 2.943c2.364 1.232 4.293 2.87 5.794 4.921a19.929 19.929 0 0 0-1.013 1.587l-.004.007c-1.783 3.223-2.663 7.077-2.663 11.542v33c0 4.4.88 8.252 2.66 11.538l.007.011c.316.551.654 1.08 1.013 1.587-1.5 2.05-3.43 3.69-5.794 4.92l-.004.003C29.22 73.679 25.537 74.5 21.2 74.5c-4.336 0-8.053-.82-11.167-2.442-3.044-1.62-5.406-3.948-7.092-6.995C1.32 61.95.5 58.267.5 54V21c0-4.336.82-8.017 2.44-11.062 1.686-3.047 4.048-5.375 7.093-6.996C13.147 1.321 16.863.5 21.2.5s8.02.821 11.065 2.441l.004.002Zm6.398 5.805c.244.383.474.778.692 1.187l.003.007C41.047 12.987 41.9 16.634 41.9 20.9V54c0 4.266-.853 7.948-2.54 11.062l-.001.003c-.218.409-.448.804-.692 1.187-.262-.385-.51-.784-.747-1.195-1.685-3.114-2.537-6.794-2.537-11.057V21c0-4.333.853-8.011 2.536-11.054.237-.413.486-.812.748-1.198Zm.627-.869c1.579-2.057 3.55-3.701 5.918-4.935C48.395 1.321 52.147.5 56.483.5c4.334 0 8.049.853 11.162 2.54l.007.003c3.114 1.622 5.508 3.952 7.194 6.999 1.618 2.926 2.469 6.406 2.533 10.458h-8.001c-.086-3.98-1.21-7.12-3.436-9.348-2.251-2.389-5.43-3.552-9.459-3.552-4.03 0-7.267 1.13-9.648 3.441l-.005.005c-2.322 2.322-3.447 5.633-3.447 9.854V54c0 4.222 1.125 7.562 3.441 9.948l.006.006.005.005c2.381 2.311 5.618 3.441 9.648 3.441 4.028 0 7.207-1.13 9.46-3.452 2.223-2.291 3.349-5.462 3.435-9.448h8.001c-.065 3.987-.915 7.47-2.535 10.46-1.685 3.046-4.08 5.41-7.195 7.098-3.114 1.621-6.83 2.442-11.166 2.442s-8.087-.82-11.27-2.444c-2.368-1.234-4.34-2.878-5.92-4.935.34-.506.655-1.034.947-1.584C42.02 62.25 42.9 58.4 42.9 54V20.9c0-4.399-.88-8.218-2.66-11.438a18.335 18.335 0 0 0-.946-1.583ZM11.836 63.943l.005.005c2.25 2.321 5.394 3.452 9.359 3.452 4.027 0 7.177-1.129 9.364-3.458C32.81 61.556 33.9 58.218 33.9 54V21c0-4.213-1.088-7.52-3.336-9.842C28.378 8.763 25.23 7.6 21.2 7.6c-3.967 0-7.112 1.166-9.362 3.555C9.588 13.477 8.5 16.785 8.5 21v33c0 4.218 1.09 7.556 3.336 9.943Z" />
  <defs>
    <linearGradient id="a" x1="38.942" x2="38.942" y1="0" y2="75" gradientUnits="userSpaceOnUse">
      <stop stop-color="#D33075" />
      <stop offset="1" stop-color="#6157D8" />
    </linearGradient>
    <linearGradient id="b" x1="38.942" x2="38.942" y1="0" y2="75" gradientUnits="userSpaceOnUse">
      <stop stop-color="#D33075" />
      <stop offset="1" stop-color="#6157D8" />
    </linearGradient>
  </defs>
</svg>
